apps/scalable/ibus-setup.svg

<svg xmlns="http://www.w3.org/2000/svg" style="isolation:isolate" width="256" height="256"><defs><filter id="a" width="270.648" height="254.338" x="-7.32" y="2.95" filterUnits="userSpaceOnUse"><feGaussianBlur xmlns="http://www.w3.org/2000/svg" in="SourceGraphic" stdDeviation="4.294"/><feOffset xmlns="http://www.w3.org/2000/svg" dy="4" result="pf_100_offsetBlur"/><feFlood xmlns="http://www.w3.org/2000/svg" flood-opacity=".4"/><feComposite xmlns="http://www.w3.org/2000/svg" in2="pf_100_offsetBlur" operator="in" result="pf_100_dropShadow"/><feBlend xmlns="http://www.w3.org/2000/svg" in="SourceGraphic" in2="pf_100_dropShadow"/></filter></defs><path fill="#1463A5" d="M165.685 11.947c74.055 0 84.639 10.557 84.639 84.544v59.251c0 73.986-10.584 84.543-84.639 84.543h-75.37c-74.055 0-84.639-10.557-84.639-84.543V96.491c0-73.987 10.584-84.544 84.639-84.544h75.37z" filter="url(#a)"/><defs><filter id="b" width="149.357" height="149" x="53.32" y="53.5" filterUnits="userSpaceOnUse"><feGaussianBlur xmlns="http://www.w3.org/2000/svg" in="SourceGraphic" stdDeviation=".429"/><feOffset xmlns="http://www.w3.org/2000/svg" dy="2" result="pf_100_offsetBlur"/><feFlood xmlns="http://www.w3.org/2000/svg" flood-opacity=".1"/><feComposite xmlns="http://www.w3.org/2000/svg" in2="pf_100_offsetBlur" operator="in" result="pf_100_dropShadow"/><feBlend xmlns="http://www.w3.org/2000/svg" in="SourceGraphic" in2="pf_100_dropShadow"/></filter></defs><g filter="url(#b)"><linearGradient id="c" x1=".567" x2=".567" y1="1.071" y2="-.071" gradientTransform="matrix(145.357 0 0 145 55.321 53.5)" gradientUnits="userSpaceOnUse"><stop offset="0%" stop-color="#a0a0a0"/><stop offset="100%" stop-color="#dfdfdf"/></linearGradient><path fill="url(#c)" d="M151.931 53.5c47.027 0 48.748 8.704 48.748 55.687v37.626c0 46.983-1.721 51.687-48.748 51.687h-47.862c-47.027 0-48.748-4.704-48.748-51.687v-37.626c0-46.983 1.721-55.687 48.748-55.687h47.862z"/></g><path fill="#FFF" d="M8.476 55.74C6.729 66.667 6.158 80.255 6.158 97.205v59.251c0 73.986 10.584 84.544 84.64 84.544h75.369c55.135 0 75.078-5.874 81.675-39.397L8.476 55.74z" opacity=".05"/><path fill="#1463A5" d="M128 69.333c-7.407 0-13.412 6.005-13.412 13.412A13.415 13.415 0 0 0 128 96.157a13.415 13.415 0 0 0 13.412-13.412c0-7.407-6.005-13.412-13.412-13.412zm-26.824 40.236v13.411h13.412v46.942h-13.412v13.411h53.648v-13.411h-13.412v-60.353h-40.236z"/><g opacity=".4"><linearGradient id="d" x1=".517" x2=".517" y2="1"><stop offset="0%" stop-color="#fff"/><stop offset="12.5%" stop-opacity=".098" stop-color="#fff"/><stop offset="92.5%" stop-opacity=".098"/><stop offset="100%" stop-opacity=".498"/></linearGradient><path fill="none" stroke="url(#d)" stroke-linecap="round" stroke-linejoin="round" stroke-width="4.077" d="M165.685 11.947c74.055 0 84.639 10.557 84.639 84.544v59.251c0 73.986-10.584 84.543-84.639 84.543h-75.37c-74.055 0-84.639-10.557-84.639-84.543V96.491c0-73.987 10.584-84.544 84.639-84.544h75.37z" vector-effect="non-scaling-stroke"/></g></svg>

<svg xmlns="http://www.w3.org/2000/svg" style="isolation:isolate" width="256" height="256" viewBox="0 0 256 256">
 <defs>
  <filter id="LAIHCd6astZIevcfGVMv2UQoB8i66y4b" width="270.648" height="254.338" x="-7.32" y="2.95" filterUnits="userSpaceOnUse">
   <feGaussianBlur xmlns="http://www.w3.org/2000/svg" in="SourceGraphic" stdDeviation="4.294"/>
   <feOffset xmlns="http://www.w3.org/2000/svg" dx="0" dy="4" result="pf_100_offsetBlur"/>
   <feFlood xmlns="http://www.w3.org/2000/svg" flood-opacity=".4"/>
   <feComposite xmlns="http://www.w3.org/2000/svg" in2="pf_100_offsetBlur" operator="in" result="pf_100_dropShadow"/>
   <feBlend xmlns="http://www.w3.org/2000/svg" in="SourceGraphic" in2="pf_100_dropShadow" mode="normal"/>
  </filter>
 </defs>
 <g filter="url(#LAIHCd6astZIevcfGVMv2UQoB8i66y4b)">
  <path fill="#1463A5" d="M 165.685 11.947 C 239.74 11.947 250.324 22.504 250.324 96.491 L 250.324 155.742 C 250.324 229.728 239.74 240.285 165.685 240.285 L 90.315 240.285 C 16.26 240.285 5.676 229.728 5.676 155.742 L 5.676 96.491 C 5.676 22.504 16.26 11.947 90.315 11.947 L 165.685 11.947 Z"/>
 </g>
 <defs>
  <filter id="4k9tuxrR5n69Mq8smGS507AwW440npT1" width="149.357" height="149" x="53.32" y="53.5" filterUnits="userSpaceOnUse">
   <feGaussianBlur xmlns="http://www.w3.org/2000/svg" in="SourceGraphic" stdDeviation=".429"/>
   <feOffset xmlns="http://www.w3.org/2000/svg" dx="0" dy="2" result="pf_100_offsetBlur"/>
   <feFlood xmlns="http://www.w3.org/2000/svg" flood-opacity=".1"/>
   <feComposite xmlns="http://www.w3.org/2000/svg" in2="pf_100_offsetBlur" operator="in" result="pf_100_dropShadow"/>
   <feBlend xmlns="http://www.w3.org/2000/svg" in="SourceGraphic" in2="pf_100_dropShadow" mode="normal"/>
  </filter>
 </defs>
 <g filter="url(#4k9tuxrR5n69Mq8smGS507AwW440npT1)">
  <linearGradient id="_lgradient_232" x1=".567" x2=".567" y1="1.071" y2="-.071" gradientTransform="matrix(145.357,0,0,145,55.321,53.5)" gradientUnits="userSpaceOnUse">
   <stop offset="0%" style="stop-color:rgb(160,160,160)"/>
   <stop offset="100%" style="stop-color:rgb(223,223,223)"/>
  </linearGradient>
  <path fill="url(#_lgradient_232)" d="M 151.931 53.5 C 198.958 53.5 200.679 62.204 200.679 109.187 L 200.679 146.813 C 200.679 193.796 198.958 198.5 151.931 198.5 L 104.069 198.5 C 57.042 198.5 55.321 193.796 55.321 146.813 L 55.321 109.187 C 55.321 62.204 57.042 53.5 104.069 53.5 L 151.931 53.5 Z"/>
 </g>
 <g opacity=".05">
  <path fill="#FFFFFF" d="M 8.476 55.74 C 6.729 66.667 6.158 80.255 6.158 97.205 L 6.158 156.456 C 6.158 230.442 16.742 241 90.798 241 L 166.167 241 C 221.302 241 241.245 235.126 247.842 201.603 L 8.476 55.74 Z"/>
 </g>
 <path fill="#1463A5" d="M 128 69.333 C 120.593 69.333 114.588 75.338 114.588 82.745 C 114.588 86.302 116.001 89.713 118.516 92.229 C 121.032 94.744 124.443 96.157 128 96.157 C 131.557 96.157 134.968 94.744 137.484 92.229 C 139.999 89.713 141.412 86.302 141.412 82.745 C 141.412 75.338 135.407 69.333 128 69.333 L 128 69.333 Z M 101.176 109.569 L 101.176 122.98 L 114.588 122.98 L 114.588 169.922 L 101.176 169.922 L 101.176 183.333 L 154.824 183.333 L 154.824 169.922 L 141.412 169.922 L 141.412 109.569 L 101.176 109.569 Z"/>
 <g opacity=".4">
  <linearGradient id="_lgradient_233" x1=".517" x2=".517" y1="0" y2="1">
   <stop offset="0%" style="stop-color:rgb(255,255,255)"/>
   <stop offset="12.5%" stop-opacity=".098" style="stop-color:rgb(255,255,255)"/>
   <stop offset="92.5%" stop-opacity=".098" style="stop-color:rgb(0,0,0)"/>
   <stop offset="100%" stop-opacity=".498" style="stop-color:rgb(0,0,0)"/>
  </linearGradient>
  <path fill="none" stroke="url(#_lgradient_233)" stroke-linecap="round" stroke-linejoin="round" stroke-width="4.077" d="M 165.685 11.947 C 239.74 11.947 250.324 22.504 250.324 96.491 L 250.324 155.742 C 250.324 229.728 239.74 240.285 165.685 240.285 L 90.315 240.285 C 16.26 240.285 5.676 229.728 5.676 155.742 L 5.676 96.491 C 5.676 22.504 16.26 11.947 90.315 11.947 L 165.685 11.947 Z" vector-effect="non-scaling-stroke"/>
 </g>
</svg>
